dist/images/icons/dislike.svg

<svg width="18" height="21" viewBox="0 0 18 21" fill="none" xmlns="http://www.w3.org/2000/svg">
<path fill-rule="evenodd" clip-rule="evenodd" d="M7.1538 19.0415C7.24762 20.2919 8.52798 21.2577 9.90793 20.9384L10.2847 20.8516C10.6303 20.7769 10.948 20.6179 11.2049 20.3913C11.4617 20.1646 11.6484 19.8784 11.7455 19.5625C12.063 18.4724 12.5148 16.2068 11.8349 13.5377C12.0313 13.5644 12.2463 13.5871 12.4744 13.6058C13.5036 13.6927 14.8835 13.7007 16.1062 13.324C16.8539 13.0929 17.541 12.4156 17.8383 11.6247C17.9872 11.2419 18.0342 10.8315 17.9754 10.4283C17.9166 10.0251 17.7537 9.64096 17.5005 9.30835C17.5843 9.15071 17.6492 8.98507 17.6997 8.82476C17.8109 8.46408 17.8628 8.06599 17.8628 7.67992C17.8628 7.29519 17.8109 6.89844 17.6997 6.53641C17.6431 6.35005 17.5657 6.16963 17.4688 5.99806C17.7127 5.48108 17.6232 4.90265 17.4645 4.46314C17.3018 4.02963 17.0639 3.62355 16.76 3.26086C16.838 3.05647 16.8697 2.84273 16.8697 2.63968C16.8636 2.21123 16.7378 1.79154 16.5045 1.42137C16.0224 0.63721 15.0654 0 13.7129 0V1.33587C14.5256 1.33587 15.0135 1.69923 15.2516 2.08396C15.3758 2.28434 15.4263 2.48472 15.4263 2.63968C15.4263 2.79998 15.3758 2.8601 15.3685 2.86678L14.8576 3.33834L15.3671 3.81124C15.6587 4.08108 15.9546 4.4952 16.096 4.88661C16.2462 5.30341 16.1581 5.4744 16.0888 5.53852L15.5793 6.01008L16.0888 6.48298C16.1509 6.54042 16.2404 6.67134 16.3111 6.90378C16.3804 7.12687 16.4194 7.39805 16.4194 7.67992C16.4194 7.96312 16.3804 8.23431 16.3111 8.4574C16.239 8.68984 16.1509 8.82075 16.0888 8.8782L15.5793 9.34976L16.0888 9.82266C16.5984 10.2929 16.6272 10.7765 16.4742 11.1866C16.2981 11.6541 15.9026 11.9788 15.65 12.0562C14.7074 12.3475 13.5613 12.3555 12.6043 12.2753C12.0734 12.23 11.5459 12.1541 11.0252 12.0482L11.005 12.0429H10.9992C10.8738 12.0141 10.7424 12.0169 10.6186 12.0511C10.4948 12.0854 10.3832 12.1497 10.2955 12.2375C10.2077 12.3252 10.147 12.4332 10.1197 12.55C10.0925 12.6669 10.0996 12.7884 10.1403 12.9018C10.8664 14.9431 10.9391 17.1352 10.3496 19.2138C10.3063 19.3634 10.1649 19.501 9.93391 19.5545L9.55572 19.6426C9.11402 19.7442 8.62902 19.4342 8.59293 18.9493C8.48467 17.5052 8.24794 16.0772 7.89718 15.1421C7.64602 14.4715 7.02677 13.4495 6.11018 12.5011C5.19213 11.5499 3.919 10.6202 2.33841 10.2194C1.76968 10.0765 1.44346 9.69041 1.44346 9.35109V4.00628C1.44346 3.65895 1.76102 3.3183 2.2417 3.27155C4.10809 3.0872 5.03624 2.56354 5.83736 2.11068L5.8951 2.07861C6.28484 1.8582 6.60961 1.6832 7.01523 1.55362C7.41507 1.42537 7.92461 1.33587 8.66077 1.33587H13.7129V0H8.66077C7.78748 0 7.11627 0.10687 6.54466 0.289884C6.0531 0.456447 5.58342 0.673786 5.1445 0.937781L5.07521 0.976522C4.34771 1.38797 3.63319 1.7914 2.09013 1.94236C0.984441 2.05056 0 2.87747 0 4.00628V9.34976C0 10.4866 0.988772 11.2641 1.95878 11.5085C3.18428 11.8184 4.23079 12.5599 5.03624 13.3921C5.84458 14.2284 6.35556 15.102 6.536 15.5803C6.82325 16.3484 7.04987 17.6375 7.1538 19.0415V19.0415Z" fill="black"/>
</svg>

<svg width="18" height="21" fill="none" xmlns="http://www.w3.org/2000/svg"><path fill-rule="evenodd" clip-rule="evenodd" d="M7.154 19.041c.094 1.25 1.374 2.217 2.754 1.897l.377-.086c.345-.075.663-.234.92-.46.257-.227.443-.514.54-.83.318-1.09.77-3.355.09-6.024.196.026.411.05.64.068 1.029.087 2.409.095 3.631-.282.748-.231 1.435-.908 1.732-1.7a2.34 2.34 0 00.137-1.196 2.427 2.427 0 00-.475-1.12c.084-.157.15-.323.2-.483.11-.36.163-.759.163-1.145 0-.385-.052-.782-.163-1.144a2.676 2.676 0 00-.231-.538c.244-.517.154-1.095-.005-1.535-.162-.433-.4-.84-.704-1.202.078-.205.11-.418.11-.621a2.345 2.345 0 00-.366-1.219C16.023.637 15.066 0 13.713 0v1.336c.813 0 1.3.363 1.539.748.124.2.174.4.174.556 0 .16-.05.22-.058.227l-.51.471.51.473c.29.27.587.684.728 1.076.15.416.062.587-.007.652l-.51.471.51.473c.062.057.151.188.222.42.07.224.108.495.108.777 0 .283-.039.554-.108.777-.072.233-.16.364-.222.421l-.51.472.51.473c.51.47.538.954.385 1.364-.176.467-.571.792-.824.87-.943.29-2.089.298-3.046.218a13.82 13.82 0 01-1.579-.227l-.02-.005h-.006a.778.778 0 00-.38.008.732.732 0 00-.323.187.652.652 0 00-.176.312.622.622 0 00.02.352c.726 2.041.8 4.233.21 6.312-.044.15-.185.287-.416.34l-.378.089c-.442.101-.927-.209-.963-.694-.108-1.444-.345-2.872-.696-3.807-.251-.67-.87-1.692-1.787-2.64-.918-.952-2.191-1.882-3.772-2.283-.568-.143-.895-.529-.895-.868V4.006c0-.347.318-.688.799-.734 1.866-.185 2.794-.708 3.595-1.161l.058-.032c.39-.22.715-.396 1.12-.525.4-.129.91-.218 1.646-.218h5.052V0H8.66c-.874 0-1.545.107-2.116.29a7.199 7.199 0 00-1.4.648l-.07.039c-.727.411-1.442.814-2.985.965C.984 2.051 0 2.877 0 4.006V9.35c0 1.137.989 1.914 1.959 2.159 1.225.31 2.272 1.05 3.077 1.883.809.836 1.32 1.71 1.5 2.188.287.768.514 2.057.618 3.461z" fill="#000"/></svg>
